svg/color/amas.svg

<?xml version="1.0" encoding="UTF-8" ?>
<!DOCTYPE svg PUBLIC "-//W3C//DTD SVG 1.1//EN" "http://www.w3.org/Graphics/SVG/1.1/DTD/svg11.dtd">
<svg width="250pt" height="250pt" viewBox="0 0 250 250" version="1.1" xmlns="http://www.w3.org/2000/svg">
<g id="#fefeffff">
<path fill="#fefeff" opacity="1.00" d=" M 0.00 0.00 L 250.00 0.00 L 250.00 250.00 L 0.00 250.00 L 0.00 0.00 M 111.90 8.39 C 110.50 7.20 106.43 6.76 106.18 9.06 C 59.09 14.92 18.23 53.71 9.02 100.18 C 7.21 100.09 7.33 103.12 8.20 104.14 C 6.37 104.48 6.44 107.59 7.28 108.89 C 7.07 110.31 6.99 111.75 7.05 113.19 C 4.79 113.49 5.25 117.55 6.48 118.92 C 5.50 123.23 6.03 127.74 6.50 132.09 C 5.23 133.43 4.77 137.52 7.05 137.81 C 6.94 139.25 7.08 140.66 7.48 142.04 C 6.42 143.18 6.01 146.67 8.00 146.81 C 10.42 161.27 16.09 175.56 24.19 187.70 C 32.33 202.57 45.14 215.55 59.90 223.92 C 68.50 231.49 80.39 234.88 90.76 239.65 C 99.39 233.44 107.16 226.01 114.03 217.93 C 117.19 216.35 118.87 212.63 122.04 210.94 C 124.36 212.30 125.91 214.73 128.06 216.37 C 135.71 224.92 144.40 232.48 153.30 239.71 C 155.16 240.59 157.14 239.44 158.91 238.88 C 190.50 227.99 219.00 205.48 232.09 174.19 C 235.84 166.14 239.43 157.07 240.04 147.99 C 241.43 147.00 240.92 145.27 240.95 143.82 C 243.19 143.50 242.75 139.49 241.57 138.10 L 241.79 137.15 C 245.10 132.16 242.80 119.06 242.04 114.00 C 240.26 95.19 233.88 76.64 223.25 60.99 C 205.53 33.64 176.09 14.02 143.82 9.00 C 143.66 7.00 140.17 7.42 139.04 8.48 C 138.29 8.36 136.78 8.11 136.03 7.99 C 130.48 5.34 117.26 6.71 111.90 8.39 Z" />
<path fill="#fefeff" opacity="1.00" d=" M 110.13 56.19 C 112.32 55.66 114.51 55.08 116.76 54.78 C 121.92 54.98 127.08 54.85 132.25 54.82 C 132.67 54.88 133.51 54.99 133.94 55.04 C 134.86 56.49 136.71 56.40 138.13 55.84 L 138.86 56.16 C 139.92 57.48 141.71 57.38 143.12 56.76 C 155.27 60.71 166.56 67.19 175.83 76.02 C 186.25 87.65 193.33 102.18 195.36 117.71 C 195.18 123.21 194.88 128.73 195.22 134.23 C 195.09 135.74 194.97 137.24 194.83 138.75 C 192.75 147.90 189.11 156.51 184.73 164.77 C 182.62 167.47 180.57 170.21 178.55 172.98 C 176.26 175.29 173.94 177.58 171.67 179.92 C 169.44 181.73 167.12 183.43 164.88 185.23 C 150.66 171.36 136.74 157.19 122.71 143.13 C 108.66 155.95 96.08 170.37 81.99 183.13 C 77.43 180.14 73.49 176.32 70.20 171.99 C 61.63 161.80 56.15 149.32 53.65 136.30 C 53.73 133.10 54.08 129.89 53.35 126.76 C 53.33 126.36 53.28 125.57 53.26 125.18 C 53.73 121.72 53.99 118.24 53.81 114.76 C 55.07 107.63 57.19 100.64 60.35 94.12 C 67.90 78.93 80.99 67.22 96.23 60.09 C 99.47 59.05 102.68 57.94 105.88 56.79 C 107.29 57.39 109.06 57.49 110.13 56.19 Z" />
</g>
<g id="#929effff">
<path fill="#929eff" opacity="1.00" d=" M 111.90 8.39 C 117.26 6.71 130.48 5.34 136.03 7.99 C 127.99 8.05 119.92 7.68 111.90 8.39 Z" />
<path fill="#929eff" opacity="1.00" d=" M 139.04 8.48 C 140.17 7.42 143.66 7.00 143.82 9.00 C 142.20 9.18 140.55 9.09 139.04 8.48 Z" />
</g>
<g id="#6777ffff">
<path fill="#6777ff" opacity="1.00" d=" M 106.18 9.06 C 106.43 6.76 110.50 7.20 111.90 8.39 C 110.47 8.55 107.61 8.89 106.18 9.06 Z" />
</g>
<g id="#0c2bffff">
<path fill="#0c2bff" opacity="1.00" d=" M 111.90 8.39 C 119.92 7.68 127.99 8.05 136.03 7.99 C 136.78 8.11 138.29 8.36 139.04 8.48 C 140.55 9.09 142.20 9.18 143.82 9.00 C 176.09 14.02 205.53 33.64 223.25 60.99 C 222.14 63.03 220.76 65.16 218.19 65.31 C 204.39 70.12 189.76 71.74 175.83 76.02 C 166.56 67.19 155.27 60.71 143.12 56.76 C 141.99 55.57 140.28 55.58 138.86 56.16 L 138.13 55.84 C 137.06 54.61 135.38 54.59 133.94 55.04 C 133.51 54.99 132.67 54.88 132.25 54.82 C 127.14 53.82 121.86 53.73 116.76 54.78 C 114.51 55.08 112.32 55.66 110.13 56.19 C 108.71 55.60 106.98 55.55 105.88 56.79 C 102.68 57.94 99.47 59.05 96.23 60.09 C 77.26 62.37 59.78 72.13 45.06 83.98 C 34.51 90.68 26.83 100.96 20.69 111.67 C 17.57 117.66 3.79 120.29 7.85 108.85 C 8.00 107.28 8.10 105.71 8.20 104.14 C 8.98 102.97 9.16 101.56 9.02 100.18 C 18.23 53.71 59.09 14.92 106.18 9.06 C 107.61 8.89 110.47 8.55 111.90 8.39 Z" />
</g>
<g id="#657affff">
<path fill="#657aff" opacity="1.00" d=" M 116.76 54.78 C 121.86 53.73 127.14 53.82 132.25 54.82 C 127.08 54.85 121.92 54.98 116.76 54.78 Z" />
</g>
<g id="#8092ffff">
<path fill="#8092ff" opacity="1.00" d=" M 133.94 55.04 C 135.38 54.59 137.06 54.61 138.13 55.84 C 136.71 56.40 134.86 56.49 133.94 55.04 Z" />
</g>
<g id="#8a9bffff">
<path fill="#8a9bff" opacity="1.00" d=" M 105.88 56.79 C 106.98 55.55 108.71 55.60 110.13 56.19 C 109.06 57.49 107.29 57.39 105.88 56.79 Z" />
</g>
<g id="#8294ffff">
<path fill="#8294ff" opacity="1.00" d=" M 138.86 56.16 C 140.28 55.58 141.99 55.57 143.12 56.76 C 141.71 57.38 139.92 57.48 138.86 56.16 Z" />
</g>
<g id="#2554ffff">
<path fill="#2554ff" opacity="1.00" d=" M 45.06 83.98 C 59.78 72.13 77.26 62.37 96.23 60.09 C 80.99 67.22 67.90 78.93 60.35 94.12 C 60.54 91.32 57.36 91.76 55.66 92.65 C 47.32 96.61 39.66 101.98 30.79 104.81 C 31.97 95.99 40.08 90.69 45.06 83.98 Z" />
<path fill="#2554ff" opacity="1.00" d=" M 184.73 164.77 C 189.11 156.51 192.75 147.90 194.83 138.75 C 194.80 141.45 194.38 144.12 194.18 146.81 C 206.11 150.59 218.78 150.78 231.02 152.98 C 235.84 155.16 237.60 150.59 240.04 147.99 C 239.43 157.07 235.84 166.14 232.09 174.19 C 223.92 177.83 215.26 171.72 207.06 170.96 C 199.72 168.74 191.11 169.50 184.73 164.77 Z" />
</g>
<g id="#153effff">
<path fill="#153eff" opacity="1.00" d=" M 223.25 60.99 C 233.88 76.64 240.26 95.19 242.04 114.00 C 241.97 121.71 242.11 129.43 241.79 137.15 L 241.57 138.10 C 241.42 139.53 241.10 142.39 240.95 143.82 C 240.92 145.27 241.43 147.00 240.04 147.99 C 237.60 150.59 235.84 155.16 231.02 152.98 C 218.78 150.78 206.11 150.59 194.18 146.81 C 194.38 144.12 194.80 141.45 194.83 138.75 C 194.97 137.24 195.09 135.74 195.22 134.23 C 196.03 128.76 196.36 123.18 195.36 117.71 C 193.33 102.18 186.25 87.65 175.83 76.02 C 189.76 71.74 204.39 70.12 218.19 65.31 C 220.76 65.16 222.14 63.03 223.25 60.99 Z" />
<path fill="#153eff" opacity="1.00" d=" M 20.69 111.67 C 26.83 100.96 34.51 90.68 45.06 83.98 C 40.08 90.69 31.97 95.99 30.79 104.81 C 39.66 101.98 47.32 96.61 55.66 92.65 C 57.36 91.76 60.54 91.32 60.35 94.12 C 57.19 100.64 55.07 107.63 53.81 114.76 C 53.13 118.19 52.89 121.70 53.26 125.18 C 53.28 125.57 53.33 126.36 53.35 126.76 C 53.28 129.93 52.78 133.19 53.65 136.30 C 56.15 149.32 61.63 161.80 70.20 171.99 C 68.77 176.21 63.97 176.56 60.59 178.49 C 50.24 183.05 39.64 187.01 28.98 190.77 C 27.28 189.92 25.78 188.72 24.19 187.70 C 16.09 175.56 10.42 161.27 8.00 146.81 C 8.18 145.20 8.09 143.56 7.48 142.04 C 7.08 140.66 6.94 139.25 7.05 137.81 C 6.91 136.38 6.64 133.52 6.50 132.09 C 6.03 127.74 5.50 123.23 6.48 118.92 C 6.62 117.49 6.91 114.62 7.05 113.19 C 6.99 111.75 7.07 110.31 7.28 108.89 L 7.85 108.85 C 3.79 120.29 17.57 117.66 20.69 111.67 Z" />
</g>
<g id="#7286ffff">
<path fill="#7286ff" opacity="1.00" d=" M 8.20 104.14 C 7.33 103.12 7.21 100.09 9.02 100.18 C 9.16 101.56 8.98 102.97 8.20 104.14 Z" />
</g>
<g id="#94a4ffff">
<path fill="#94a4ff" opacity="1.00" d=" M 7.28 108.89 C 6.44 107.59 6.37 104.48 8.20 104.14 C 8.10 105.71 8.00 107.28 7.85 108.85 L 7.28 108.89 Z" />
</g>
<g id="#7186ffff">
<path fill="#7186ff" opacity="1.00" d=" M 6.48 118.92 C 5.25 117.55 4.79 113.49 7.05 113.19 C 6.91 114.62 6.62 117.49 6.48 118.92 Z" />
</g>
<g id="#a5b5ffff">
<path fill="#a5b5ff" opacity="1.00" d=" M 242.04 114.00 C 242.80 119.06 245.10 132.16 241.79 137.15 C 242.11 129.43 241.97 121.71 242.04 114.00 Z" />
</g>
<g id="#a2b1feff">
<path fill="#a2b1fe" opacity="1.00" d=" M 53.26 125.18 C 52.89 121.70 53.13 118.19 53.81 114.76 C 53.99 118.24 53.73 121.72 53.26 125.18 Z" />
</g>
<g id="#98aaffff">
<path fill="#98aaff" opacity="1.00" d=" M 195.36 117.71 C 196.36 123.18 196.03 128.76 195.22 134.23 C 194.88 128.73 195.18 123.21 195.36 117.71 Z" />
</g>
<g id="#a4b3feff">
<path fill="#a4b3fe" opacity="1.00" d=" M 53.35 126.76 C 54.08 129.89 53.73 133.10 53.65 136.30 C 52.78 133.19 53.28 129.93 53.35 126.76 Z" />
</g>
<g id="#758cffff">
<path fill="#758cff" opacity="1.00" d=" M 6.50 132.09 C 6.64 133.52 6.91 136.38 7.05 137.81 C 4.77 137.52 5.23 133.43 6.50 132.09 Z" />
</g>
<g id="#7e96ffff">
<path fill="#7e96ff" opacity="1.00" d=" M 240.95 143.82 C 241.10 142.39 241.42 139.53 241.57 138.10 C 242.75 139.49 243.19 143.50 240.95 143.82 Z" />
</g>
<g id="#95a7ffff">
<path fill="#95a7ff" opacity="1.00" d=" M 7.48 142.04 C 8.09 143.56 8.18 145.20 8.00 146.81 C 6.01 146.67 6.42 143.18 7.48 142.04 Z" />
</g>
<g id="#2555ffff">
<path fill="#2555ff" opacity="1.00" d=" M 81.99 183.13 C 96.08 170.37 108.66 155.95 122.71 143.13 C 136.74 157.19 150.66 171.36 164.88 185.23 C 167.24 187.47 169.79 189.54 172.02 191.93 C 175.01 195.73 179.13 198.39 183.19 200.91 C 169.36 204.03 155.73 207.89 141.87 210.88 C 137.07 212.33 131.72 212.54 128.06 216.37 C 125.91 214.73 124.36 212.30 122.04 210.94 C 118.87 212.63 117.19 216.35 114.03 217.93 C 95.68 219.26 78.03 231.11 59.90 223.92 C 45.14 215.55 32.33 202.57 24.19 187.70 C 25.78 188.72 27.28 189.92 28.98 190.77 C 39.64 187.01 50.24 183.05 60.59 178.49 C 63.97 176.56 68.77 176.21 70.20 171.99 C 73.49 176.32 77.43 180.14 81.99 183.13 Z" />
</g>
<g id="#3366ffff">
<path fill="#3366ff" opacity="1.00" d=" M 178.55 172.98 C 180.57 170.21 182.62 167.47 184.73 164.77 C 191.11 169.50 199.72 168.74 207.06 170.96 C 215.26 171.72 223.92 177.83 232.09 174.19 C 219.00 205.48 190.50 227.99 158.91 238.88 C 157.14 239.44 155.16 240.59 153.30 239.71 C 144.40 232.48 135.71 224.92 128.06 216.37 C 131.72 212.54 137.07 212.33 141.87 210.88 C 155.73 207.89 169.36 204.03 183.19 200.91 C 179.13 198.39 175.01 195.73 172.02 191.93 C 182.64 196.40 194.47 201.59 206.03 197.21 C 212.45 195.97 219.47 192.32 222.15 186.18 C 208.67 181.82 194.54 180.06 180.97 176.06 C 179.61 175.67 179.31 174.00 178.55 172.98 Z" />
</g>
<g id="#4173ffff">
<path fill="#4173ff" opacity="1.00" d=" M 171.67 179.92 C 173.94 177.58 176.26 175.29 178.55 172.98 C 179.31 174.00 179.61 175.67 180.97 176.06 C 194.54 180.06 208.67 181.82 222.15 186.18 C 219.47 192.32 212.45 195.97 206.03 197.21 C 207.38 195.56 212.54 192.80 208.31 191.71 C 196.25 189.05 184.26 185.88 172.33 182.66 C 172.16 181.98 171.83 180.60 171.67 179.92 Z" />
</g>
<g id="#5380ffff">
<path fill="#5380ff" opacity="1.00" d=" M 164.88 185.23 C 167.12 183.43 169.44 181.73 171.67 179.92 C 171.83 180.60 172.16 181.98 172.33 182.66 C 184.26 185.88 196.25 189.05 208.31 191.71 C 212.54 192.80 207.38 195.56 206.03 197.21 C 194.47 201.59 182.64 196.40 172.02 191.93 C 169.79 189.54 167.24 187.47 164.88 185.23 Z" />
</g>
<g id="#3364ffff">
<path fill="#3364ff" opacity="1.00" d=" M 59.90 223.92 C 78.03 231.11 95.68 219.26 114.03 217.93 C 107.16 226.01 99.39 233.44 90.76 239.65 C 80.39 234.88 68.50 231.49 59.90 223.92 Z" />
</g>
</svg>

<?xml version="1.0" encoding="utf-8"?>
<!-- Generator: Adobe Illustrator 26.0.3, SVG Export Plug-In . SVG Version: 6.00 Build 0)  -->
<svg version="1.1" id="Layer_1" xmlns="http://www.w3.org/2000/svg" xmlns:xlink="http://www.w3.org/1999/xlink" x="0px" y="0px"
	 viewBox="0 0 250 250" style="enable-background:new 0 0 250 250;" xml:space="preserve">
<style type="text/css">
	.st0{fill:#FEFEFF;}
	.st1{fill:#929EFF;}
	.st2{fill:#6777FF;}
	.st3{fill:#0C2BFF;}
	.st4{fill:#657AFF;}
	.st5{fill:#8092FF;}
	.st6{fill:#8A9BFF;}
	.st7{fill:#8294FF;}
	.st8{fill:#2554FF;}
	.st9{fill:#153EFF;}
	.st10{fill:#7286FF;}
	.st11{fill:#94A4FF;}
	.st12{fill:#7186FF;}
	.st13{fill:#A5B5FF;}
	.st14{fill:#A2B1FE;}
	.st15{fill:#98AAFF;}
	.st16{fill:#A4B3FE;}
	.st17{fill:#758CFF;}
	.st18{fill:#7E96FF;}
	.st19{fill:#95A7FF;}
	.st20{fill:#2555FF;}
	.st21{fill:#3366FF;}
	.st22{fill:#4173FF;}
	.st23{fill:#5380FF;}
	.st24{fill:#3364FF;}
</style>
<g id="_x23_fefeffff">
	<path class="st0" d="M110.1,56.2c2.2-0.5,4.4-1.1,6.6-1.4c5.2,0.2,10.3,0.1,15.5,0c0.4,0.1,1.3,0.2,1.7,0.2
		c0.9,1.5,2.8,1.4,4.2,0.8l0.7,0.3c1.1,1.3,2.9,1.2,4.3,0.6c12.2,4,23.4,10.4,32.7,19.3c10.4,11.6,17.5,26.2,19.5,41.7
		c-0.2,5.5-0.5,11-0.1,16.5c-0.1,1.5-0.2,3-0.4,4.5c-2.1,9.1-5.7,17.8-10.1,26c-2.1,2.7-4.2,5.4-6.2,8.2c-2.3,2.3-4.6,4.6-6.9,6.9
		c-2.2,1.8-4.6,3.5-6.8,5.3c-14.2-13.9-28.1-28-42.2-42.1c-14,12.8-26.6,27.2-40.7,40c-4.6-3-8.5-6.8-11.8-11.1
		c-8.6-10.2-14-22.7-16.5-35.7c0.1-3.2,0.4-6.4-0.3-9.5c0-0.4-0.1-1.2-0.1-1.6c0.5-3.5,0.7-6.9,0.6-10.4c1.3-7.1,3.4-14.1,6.5-20.6
		c7.6-15.2,20.6-26.9,35.9-34c3.2-1,6.4-2.2,9.6-3.3C107.3,57.4,109.1,57.5,110.1,56.2z"/>
</g>
<g id="_x23_929effff">
	<path class="st1" d="M111.9,8.4c5.4-1.7,18.6-3.1,24.1-0.4C128,8.1,119.9,7.7,111.9,8.4z"/>
	<path class="st1" d="M139,8.5c1.1-1.1,4.6-1.5,4.8,0.5C142.2,9.2,140.6,9.1,139,8.5z"/>
</g>
<g id="_x23_6777ffff">
	<path class="st2" d="M106.2,9.1c0.2-2.3,4.3-1.9,5.7-0.7C110.5,8.6,107.6,8.9,106.2,9.1z"/>
</g>
<g id="_x23_0c2bffff">
	<path class="st3" d="M111.9,8.4c8-0.7,16.1-0.3,24.1-0.4c0.8,0.1,2.3,0.4,3,0.5c1.5,0.6,3.2,0.7,4.8,0.5c32.3,5,61.7,24.6,79.4,52
		c-1.1,2-2.5,4.2-5.1,4.3c-13.8,4.8-28.4,6.4-42.4,10.7c-9.3-8.8-20.6-15.3-32.7-19.3c-1.1-1.2-2.8-1.2-4.3-0.6l-0.7-0.3
		c-1.1-1.2-2.8-1.2-4.2-0.8c-0.4,0-1.3-0.2-1.7-0.2c-5.1-1-10.4-1.1-15.5,0c-2.2,0.3-4.4,0.9-6.6,1.4c-1.4-0.6-3.1-0.6-4.2,0.6
		c-3.2,1.1-6.4,2.3-9.6,3.3c-19,2.3-36.5,12-51.2,23.9c-10.6,6.7-18.2,17-24.4,27.7c-3.1,6-16.9,8.6-12.8-2.8
		c0.2-1.6,0.3-3.1,0.3-4.7c0.8-1.2,1-2.6,0.8-4c9.2-46.5,50.1-85.3,97.2-91.1C107.6,8.9,110.5,8.6,111.9,8.4z"/>
</g>
<g id="_x23_657affff">
	<path class="st4" d="M116.8,54.8c5.1-1,10.4-1,15.5,0C127.1,54.8,121.9,55,116.8,54.8z"/>
</g>
<g id="_x23_8092ffff">
	<path class="st5" d="M133.9,55c1.4-0.5,3.1-0.4,4.2,0.8C136.7,56.4,134.9,56.5,133.9,55z"/>
</g>
<g id="_x23_8a9bffff">
	<path class="st6" d="M105.9,56.8c1.1-1.2,2.8-1.2,4.2-0.6C109.1,57.5,107.3,57.4,105.9,56.8z"/>
</g>
<g id="_x23_8294ffff">
	<path class="st7" d="M138.9,56.2c1.4-0.6,3.1-0.6,4.3,0.6C141.7,57.4,139.9,57.5,138.9,56.2z"/>
</g>
<g id="_x23_2554ffff">
	<path class="st8" d="M45.1,84c14.7-11.9,32.2-21.6,51.2-23.9c-15.2,7.1-28.3,18.8-35.9,34c0.2-2.8-3-2.4-4.7-1.5
		c-8.3,4-16,9.3-24.9,12.2C32,96,40.1,90.7,45.1,84z"/>
	<path class="st8" d="M184.7,164.8c4.4-8.3,8-16.9,10.1-26c0,2.7-0.4,5.4-0.7,8.1c11.9,3.8,24.6,4,36.8,6.2c4.8,2.2,6.6-2.4,9-5
		c-0.6,9.1-4.2,18.1-7.9,26.2c-8.2,3.6-16.8-2.5-25-3.2C199.7,168.7,191.1,169.5,184.7,164.8z"/>
</g>
<g id="_x23_153effff">
	<path class="st9" d="M223.2,61c10.6,15.6,17,34.2,18.8,53c-0.1,7.7,0.1,15.4-0.2,23.1l-0.2,1c-0.2,1.4-0.5,4.3-0.6,5.7
		c0,1.4,0.5,3.2-0.9,4.2c-2.4,2.6-4.2,7.2-9,5c-12.2-2.2-24.9-2.4-36.8-6.2c0.2-2.7,0.6-5.4,0.7-8.1c0.1-1.5,0.3-3,0.4-4.5
		c0.8-5.5,1.1-11,0.1-16.5c-2-15.5-9.1-30.1-19.5-41.7c13.9-4.3,28.6-5.9,42.4-10.7C220.8,65.2,222.1,63,223.2,61z"/>
	<path class="st9" d="M20.7,111.7c6.1-10.7,13.8-21,24.4-27.7c-5,6.7-13.1,12-14.3,20.8c8.9-2.8,16.5-8.2,24.9-12.2
		c1.7-0.9,4.9-1.3,4.7,1.5c-3.2,6.5-5.3,13.5-6.5,20.6c-0.7,3.4-0.9,6.9-0.6,10.4c0,0.4,0.1,1.2,0.1,1.6c-0.1,3.2-0.6,6.4,0.3,9.5
		c2.5,13,8,25.5,16.5,35.7c-1.4,4.2-6.2,4.6-9.6,6.5c-10.3,4.6-21,8.5-31.6,12.3c-1.7-0.9-3.2-2.1-4.8-3.1
		c-8.1-12.1-13.8-26.4-16.2-40.9c0.2-1.6,0.1-3.2-0.5-4.8c-0.4-1.4-0.5-2.8-0.4-4.2c-0.1-1.4-0.4-4.3-0.6-5.7c-0.5-4.3-1-8.9,0-13.2
		c0.1-1.4,0.4-4.3,0.6-5.7c-0.1-1.4,0-2.9,0.2-4.3l0.6,0C3.8,120.3,17.6,117.7,20.7,111.7z"/>
</g>
<g id="_x23_7286ffff">
	<path class="st10" d="M8.2,104.1c-0.9-1-1-4.1,0.8-4C9.2,101.6,9,103,8.2,104.1z"/>
</g>
<g id="_x23_94a4ffff">
	<path class="st11" d="M7.3,108.9c-0.8-1.3-0.9-4.4,0.9-4.8c-0.1,1.6-0.2,3.1-0.3,4.7L7.3,108.9z"/>
</g>
<g id="_x23_7186ffff">
	<path class="st12" d="M6.5,118.9c-1.2-1.4-1.7-5.4,0.6-5.7C6.9,114.6,6.6,117.5,6.5,118.9z"/>
</g>
<g id="_x23_a5b5ffff">
	<path class="st13" d="M242,114c0.8,5.1,3.1,18.2-0.2,23.1C242.1,129.4,242,121.7,242,114z"/>
</g>
<g id="_x23_a2b1feff">
	<path class="st14" d="M53.3,125.2c-0.4-3.5-0.1-7,0.6-10.4C54,118.2,53.7,121.7,53.3,125.2z"/>
</g>
<g id="_x23_98aaffff">
	<path class="st15" d="M195.4,117.7c1,5.5,0.7,11-0.1,16.5C194.9,128.7,195.2,123.2,195.4,117.7z"/>
</g>
<g id="_x23_a4b3feff">
	<path class="st16" d="M53.3,126.8c0.7,3.1,0.4,6.3,0.3,9.5C52.8,133.2,53.3,129.9,53.3,126.8z"/>
</g>
<g id="_x23_758cffff">
	<path class="st17" d="M6.5,132.1c0.1,1.4,0.4,4.3,0.6,5.7C4.8,137.5,5.2,133.4,6.5,132.1z"/>
</g>
<g id="_x23_7e96ffff">
	<path class="st18" d="M240.9,143.8c0.2-1.4,0.5-4.3,0.6-5.7C242.8,139.5,243.2,143.5,240.9,143.8z"/>
</g>
<g id="_x23_95a7ffff">
	<path class="st19" d="M7.5,142c0.6,1.5,0.7,3.2,0.5,4.8C6,146.7,6.4,143.2,7.5,142z"/>
</g>
<g id="_x23_2555ffff">
	<path class="st20" d="M82,183.1c14.1-12.8,26.7-27.2,40.7-40c14,14.1,28,28.2,42.2,42.1c2.4,2.2,4.9,4.3,7.1,6.7
		c3,3.8,7.1,6.5,11.2,9c-13.8,3.1-27.5,7-41.3,10c-4.8,1.4-10.1,1.7-13.8,5.5c-2.1-1.6-3.7-4.1-6-5.4c-3.2,1.7-4.8,5.4-8,7
		c-18.3,1.3-36,13.2-54.1,6c-14.8-8.4-27.6-21.3-35.7-36.2c1.6,1,3.1,2.2,4.8,3.1c10.7-3.8,21.3-7.7,31.6-12.3
		c3.4-1.9,8.2-2.3,9.6-6.5C73.5,176.3,77.4,180.1,82,183.1z"/>
</g>
<g id="_x23_3366ffff">
	<path class="st21" d="M178.6,173c2-2.8,4.1-5.5,6.2-8.2c6.4,4.7,15,4,22.3,6.2c8.2,0.8,16.9,6.9,25,3.2
		c-13.1,31.3-41.6,53.8-73.2,64.7c-1.8,0.6-3.8,1.7-5.6,0.8c-8.9-7.2-17.6-14.8-25.2-23.3c3.7-3.8,9-4,13.8-5.5
		c13.9-3,27.5-6.9,41.3-10c-4.1-2.5-8.2-5.2-11.2-9c10.6,4.5,22.4,9.7,34,5.3c6.4-1.2,13.4-4.9,16.1-11
		c-13.5-4.4-27.6-6.1-41.2-10.1C179.6,175.7,179.3,174,178.6,173z"/>
</g>
<g id="_x23_4173ffff">
	<path class="st22" d="M171.7,179.9c2.3-2.3,4.6-4.6,6.9-6.9c0.8,1,1.1,2.7,2.4,3.1c13.6,4,27.7,5.8,41.2,10.1
		c-2.7,6.1-9.7,9.8-16.1,11c1.4-1.7,6.5-4.4,2.3-5.5c-12.1-2.7-24.1-5.8-36-9.1C172.2,182,171.8,180.6,171.7,179.9z"/>
</g>
<g id="_x23_5380ffff">
	<path class="st23" d="M164.9,185.2c2.2-1.8,4.6-3.5,6.8-5.3c0.2,0.7,0.5,2.1,0.7,2.7c11.9,3.2,23.9,6.4,36,9.1
		c4.2,1.1-0.9,3.8-2.3,5.5c-11.6,4.4-23.4-0.8-34-5.3C169.8,189.5,167.2,187.5,164.9,185.2z"/>
</g>
<g id="_x23_3364ffff">
	<path class="st24" d="M59.9,223.9c18.1,7.2,35.8-4.7,54.1-6c-6.9,8.1-14.6,15.5-23.3,21.7C80.4,234.9,68.5,231.5,59.9,223.9z"/>
</g>
</svg>
